!!!OTL: ZWEI SAERGE EINSAM STEHEN
!!!ARE: Europa, Mitteleuropa, Deutschland
!!!SCT: B0280
!!!YEM: Copyright 1995, estate of Helmut Schaffrath.
**kern
*ICvox
*Ivox
*M4/4
*k[f#]
*e:
{4B
=1
4.b
8a
4gn
4f#
=2
4.e
8f#
4gn}
{8a
8a
=3
4b
8a
8b
4.ccn
8a
=4
2b
4r}
{8ee
8ee
=5
4.ddn
8ccn
4a
8a
8a
=6
4.b
8a
4gn}
{8f#
8f#
=7
4e
8e
8f#
4gn
4f#
=8
2e
4r}
==
!!!AGN: Stimmungs - Lied, Tauer, Toten - Klage
!!!ONB: ESAC (Essen Associative Code) Database: BOEHME
!!!AMT: simple quadruple
!!!AIN: vox
!!!EED: Helmut Schaffrath
!!!EEV: 1.0
*-
